icons/market_stall_fill.svg

<svg width="48" height="48" viewBox="0 0 48 48" fill="none" xmlns="http://www.w3.org/2000/svg">
<path fill-rule="evenodd" clip-rule="evenodd" d="M9.26322 6C8.88541 6 8.54782 6.26219 8.41801 6.65642L6.10958 13.6672C6.03709 13.8874 6 14.1199 6 14.3544V17.1429C6 18.7208 7.15127 20 8.57143 20C9.99159 20 11.1429 18.7208 11.1429 17.1429C11.1429 18.7208 12.2941 20 13.7143 20C15.1344 20 16.2857 18.7208 16.2857 17.1429C16.2857 18.7208 17.437 20 18.8571 20C20.2766 20 21.4274 18.7221 21.4286 17.1452C21.4297 18.7221 22.5805 20 24 20C25.4202 20 26.5714 18.7208 26.5714 17.1429C26.5714 18.7208 27.7227 20 29.1429 20C30.5623 20 31.7131 18.7221 31.7143 17.1452C31.7154 18.7221 32.8663 20 34.2857 20C35.7059 20 36.8571 18.7208 36.8571 17.1429C36.8571 18.7208 38.0084 20 39.4286 20C40.8487 20 42 18.7208 42 17.1429V14.3544C42 14.1199 41.9629 13.8874 41.8904 13.6672L39.582 6.65642C39.4522 6.26218 39.1146 6 38.7368 6H9.26322Z" fill="black"/>
<path fill-rule="evenodd" clip-rule="evenodd" d="M10 21.2303V29H7.5C7.22386 29 7 29.2239 7 29.5V30.5C7 30.7761 7.22386 31 7.5 31H40.5C40.7761 31 41 30.7761 41 30.5V29.5C41 29.2239 40.7761 29 40.5 29H38V21.2303C37.5766 21.0623 37.1928 20.822 36.8571 20.5266C36.5987 20.754 36.3116 20.9488 36 21.1031V29H12V21.1031C11.6884 20.9488 11.4013 20.754 11.1429 20.5266C10.8072 20.822 10.4234 21.0623 10 21.2303ZM36 19.2725C36.0853 19.1877 36.1654 19.0966 36.2399 19H36V19.2725ZM37.4744 19C37.5716 19.1261 37.6785 19.2427 37.7938 19.3484C37.8598 19.4089 37.9287 19.4658 38 19.5189V19H37.4744ZM10 19.5189C10.0713 19.4658 10.1402 19.4089 10.2062 19.3484C10.3215 19.2427 10.4284 19.1261 10.5256 19H10V19.5189ZM11.7601 19H12V19.2725C11.9147 19.1877 11.8346 19.0966 11.7601 19ZM8.5 33C8.22386 33 8 33.2239 8 33.5V41C8 41.5523 8.44772 42 9 42H39C39.5523 42 40 41.5523 40 41V33.5C40 33.2239 39.7761 33 39.5 33H8.5Z" fill="black"/>
<path d="M14 26.5C14 26.2239 14.2239 26 14.5 26H17.5C17.7761 26 18 26.2239 18 26.5V28.5C18 28.7761 17.7761 29 17.5 29H14.5C14.2239 29 14 28.7761 14 28.5V26.5Z" fill="black"/>
<path d="M16 27.5C16 27.2239 16.2239 27 16.5 27H19.5C19.7761 27 20 27.2239 20 27.5V28.5C20 28.7761 19.7761 29 19.5 29H16.5C16.2239 29 16 28.7761 16 28.5V27.5Z" fill="black"/>
<path d="M24 27.5C24 28.3284 23.3284 29 22.5 29C21.6716 29 21 28.3284 21 27.5C21 26.6716 21.6716 26 22.5 26C23.3284 26 24 26.6716 24 27.5Z" fill="black"/>
</svg>

<svg
  xmlns="http://www.w3.org/2000/svg"
  width="24"
  height="24"
  viewBox="0 0 24 24"
  fill="none"
  stroke="currentColor"
  stroke-width="2"
  stroke-linecap="round"
  stroke-linejoin="round"
>
  <path
    fill-rule="evenodd"
    d="M9.263 6c-.378 0-.715.262-.845.656L6.11 13.667a2.2 2.2 0 0 0-.11.687v2.789C6 18.72 7.151 20 8.571 20s2.572-1.28 2.572-2.857c0 1.578 1.151 2.857 2.571 2.857s2.572-1.28 2.572-2.857c0 1.578 1.151 2.857 2.571 2.857s2.57-1.278 2.572-2.855C21.429 18.722 22.58 20 24 20s2.571-1.28 2.571-2.857c0 1.578 1.152 2.857 2.572 2.857s2.57-1.278 2.571-2.855C31.715 18.722 32.866 20 34.286 20s2.571-1.28 2.571-2.857c0 1.578 1.151 2.857 2.572 2.857C40.849 20 42 18.72 42 17.143v-2.789a2.2 2.2 0 0 0-.11-.687l-2.308-7.01c-.13-.395-.467-.657-.845-.657z"
    clip-rule="evenodd"
  />
  <path
    fill-rule="evenodd"
    d="M10 21.23V29H7.5a.5.5 0 0 0-.5.5v1a.5.5 0 0 0 .5.5h33a.5.5 0 0 0 .5-.5v-1a.5.5 0 0 0-.5-.5H38v-7.77a3.9 3.9 0 0 1-1.143-.703 4 4 0 0 1-.857.576V29H12v-7.897a4 4 0 0 1-.857-.576c-.336.295-.72.535-1.143.703m26-1.957q.127-.127.24-.273H36zM37.474 19a2.8 2.8 0 0 0 .526.519V19zM10 19.519a2.6 2.6 0 0 0 .526-.519H10zM11.76 19H12v.273a3 3 0 0 1-.24-.273M8.5 33a.5.5 0 0 0-.5.5V41a1 1 0 0 0 1 1h30a1 1 0 0 0 1-1v-7.5a.5.5 0 0 0-.5-.5z"
    clip-rule="evenodd"
  />
  <path d="M14 26.5a.5.5 0 0 1 .5-.5h3a.5.5 0 0 1 .5.5v2a.5.5 0 0 1-.5.5h-3a.5.5 0 0 1-.5-.5z" />
  <path d="M16 27.5a.5.5 0 0 1 .5-.5h3a.5.5 0 0 1 .5.5v1a.5.5 0 0 1-.5.5h-3a.5.5 0 0 1-.5-.5z" />
  <path d="M24 27.5a1.5 1.5 0 1 1-3 0 1.5 1.5 0 0 1 3 0" />
</svg>
